src/images/circuits/monaco.svg

<svg width="40" height="27" viewBox="0 0 40 27" fill="none" xmlns="http://www.w3.org/2000/svg">
<path d="M29.7306 3.15425C30.7516 2.57897 33.3323 1.5698 34.6056 1.03656C34.6622 1.01283 34.7239 0.999011 34.7853 1.00044C36.2597 1.03469 35.1896 3.07148 34.3848 4.21075C34.3294 4.28915 34.2961 4.38095 34.2905 4.47678L34.2499 5.16655C34.2399 5.33662 34.3164 5.50135 34.4605 5.5922C34.7331 5.76406 35.1073 5.96159 35.3433 5.96159C35.6404 5.96159 35.8827 5.17897 35.9812 4.72703C35.9914 4.68004 35.9939 4.63209 35.9887 4.58428C35.9589 4.31191 35.8776 3.77912 35.7349 3.35104C35.5996 2.94524 35.9738 2.67248 36.2606 2.54958C36.3422 2.5146 36.4331 2.51333 36.5195 2.53367L37.4485 2.75225C37.4808 2.75984 37.5121 2.77052 37.5421 2.78451C38.0761 3.03325 39.0488 3.55415 38.9981 3.80789C38.9328 4.1342 38.2802 5.11316 37.3012 6.15738C36.3223 7.2016 33.3202 10.5953 30.9054 11.9006C28.4906 13.2059 23.8569 12.6185 22.6822 12.4227C21.816 12.2783 20.5508 11.7903 19.898 11.5103C19.7983 11.4676 19.6882 11.4569 19.5825 11.4813L18.1967 11.8011C18.1001 11.8234 17.999 11.8165 17.9063 11.7812L16.7177 11.3283C16.6912 11.3183 16.6664 11.3064 16.642 11.292C15.6708 10.7189 13.6831 9.57526 13.2189 9.42056C12.6316 9.22477 9.04208 8.4416 8.4547 8.4416C7.86733 8.4416 5.84416 11.1174 5.51784 11.7048C5.30442 12.0889 5.77436 12.7028 6.17881 13.1042C6.32564 13.25 6.38713 13.4647 6.32012 13.6604C5.88169 14.9407 5.15674 17.1172 5.06099 17.6438C4.96824 18.1539 4.18208 18.4958 3.67212 18.6421C3.55818 18.6748 3.45456 18.7393 3.39023 18.8389C3.25911 19.0418 3.10308 19.3346 3.10308 19.5364C3.10308 19.8627 2.97256 21.5596 3.16835 22.6038C3.36414 23.648 3.36414 23.9744 4.21257 24.1049C5.06099 24.2354 4.8652 25.0186 4.93047 25.6712C4.99573 26.3238 3.49467 26.1933 2.38518 25.7365C1.2757 25.2796 1.21044 24.627 1.40623 23.9744C1.60202 23.3217 1.14494 21.8207 1.01441 20.5806C0.883887 19.3406 1.66729 17.0564 2.25466 15.9469C2.84203 14.8374 3.16831 12.5532 3.49463 11.4437C3.82094 10.3343 5.58297 8.6374 5.90929 8.24581C6.23561 7.85423 6.69227 7.39739 6.8228 6.67949C6.95333 5.96159 7.86718 6.2879 8.58508 6.87528C9.30298 7.46265 12.2399 7.52791 14.1326 8.24581C16.0252 8.96371 16.0905 9.09424 17.3305 9.22477C18.5705 9.3553 19.8104 9.22477 21.442 9.55109C23.0736 9.87741 24.8359 11.3785 27.0549 10.2037C29.2739 9.02898 28.2295 7.65844 27.8379 6.02685C27.4463 4.39526 28.6863 3.74262 29.7306 3.15425Z" stroke="#FF0000"/>
</svg>

<svg width="40" height="27" fill="none" xmlns="http://www.w3.org/2000/svg"><path d="M29.73 3.154c1.022-.575 3.602-1.584 4.876-2.117a.442.442 0 0 1 .18-.037c1.474.035.404 2.071-.401 3.21a.513.513 0 0 0-.094.267l-.041.69c-.01.17.066.334.21.425.273.172.647.37.883.37.297 0 .54-.783.638-1.235a.445.445 0 0 0 .008-.143 6.615 6.615 0 0 0-.254-1.233c-.135-.406.239-.679.526-.801a.414.414 0 0 1 .258-.016l.93.218a.482.482 0 0 1 .093.033c.534.248 1.507.77 1.456 1.023-.065.326-.718 1.305-1.697 2.35-.979 1.044-3.98 4.437-6.396 5.743-2.414 1.305-7.048.717-8.223.522-.866-.145-2.131-.633-2.784-.913a.51.51 0 0 0-.316-.029l-1.385.32a.5.5 0 0 1-.29-.02l-1.19-.453a.483.483 0 0 1-.075-.036c-.971-.573-2.959-1.717-3.423-1.871-.587-.196-4.177-.98-4.764-.98-.588 0-2.61 2.676-2.937 3.264-.214.384.256.998.66 1.4.148.145.21.36.142.555-.438 1.28-1.163 3.457-1.259 3.984-.093.51-.879.852-1.389.998a.489.489 0 0 0-.282.197c-.13.203-.287.496-.287.697 0 .327-.13 2.024.065 3.068.196 1.044.196 1.37 1.045 1.5.848.131.652.915.717 1.567.066.653-1.435.522-2.545.066-1.11-.457-1.175-1.11-.979-1.763.196-.652-.261-2.153-.392-3.393-.13-1.24.653-3.525 1.24-4.634.588-1.11.914-3.394 1.24-4.503.327-1.11 2.089-2.807 2.415-3.198.327-.392.783-.849.914-1.567.13-.717 1.044-.391 1.762.196.718.588 3.655.653 5.548 1.37 1.892.719 1.957.85 3.198.98 1.24.13 2.48 0 4.111.326 1.632.326 3.394 1.828 5.613.653 2.219-1.175 1.175-2.546.783-4.177-.392-1.632.848-2.284 1.893-2.873Z" stroke="red"/></svg>
